icons/properties-16.svg

<svg id="icons" xmlns="http://www.w3.org/2000/svg" viewBox="0 0 16 16"><defs><style>.cls-1{fill:none;}</style></defs><rect class="cls-1" width="16" height="16"/><path d="M14,3V1a.99947.99947,0,0,0-1-1H2A.99943.99943,0,0,0,1,1V15a1.00005,1.00005,0,0,0,1,1H13a1.00009,1.00009,0,0,0,1-1V10h2V3ZM13,15H2V1H13V3H6V13.30078L9.30078,10H13Zm2-6H9.08588L7,11.08588V4h8ZM14,8H10V7h4ZM9,8H8V7H9Zm5-2H10V5h4ZM9,6H8V5H9Z"/><rect class="cls-1" width="16" height="16"/></svg>

<svg xmlns="http://www.w3.org/2000/svg" viewBox="0 0 16 16"><path d="M0 0h16v16H0z"/><path d="M14 3V1a1 1 0 0 0-1-1H2a1 1 0 0 0-1 1v14a1 1 0 0 0 1 1h11a1 1 0 0 0 1-1v-5h2V3zm-1 12H2V1h11v2H6v10.3L9.3 10H13zm2-6H9.086L7 11.086V4h8zm-1-1h-4V7h4zM9 8H8V7h1zm5-2h-4V5h4zM9 6H8V5h1z"/><path d="M0 0h16v16H0z"/></svg>
